X: 79
T: No_81_Comanche_Dance_Song_(b).krn
N: Derived from No_81_Comanche_Dance_Song_(b).krn
%%abc-version 2.0
%%abcx-abcm2ps-target-version 5.9.1 (29 Sep 2008)
%%abc-creator hum2abc beta
%%abcx-conversion-date 2019/03/15 08:25:36
%%humdrum-veritas 3821520568
%%humdrum-veritas-data 2281819235
%%linebreak <none>
%%barnumbers 0
L: 1/8
M: 2/4
K: F clef=bass
[K:clef=bass][M:2/4]A,A,A,2 [I:setbarnb 2]| 
A,A,A,2 | 
G,G,G,2 | 
A,F,/F,/F,2 | 
F,F,F,2 | 
D,D, D, z | 
F,F,/F,/F,2 | 
F,F, F,F, | 
F,B, B,/B,/F, | 
G,F,/F,/F,2 | 
[M:5/8]F,F,/F,/F, z F, | 
[M:2/4]G,F,F,2 | 
F,F, F, z :|]  
G,G, G,/ z/ F, | 
[M:3/4]G,4-G,G, | 
[M:2/4]F,2F,F, | 
[M:3/4]F,F, F,F, F, z | 
[M:2/4]G,3/G,/ G,/ z/ F, | 
[M:3/4]G,4-G,G, | 
[M:2/4]F,2F,F, | 
[M:3/4]F,F, F,F, F, z |]  



